icon-svg/nanoleaf-screen-lights.svg

<svg xmlns="http://www.w3.org/2000/svg" viewBox="0 0 24 24"><path fill="#44739e" d="M4.7 16.124v.382h1.391v-.137a1.42 1.42 0 0 1 1.283.007v.13h1.388v-.205a1.34 1.34 0 0 0 1.243.033v.176h1.389v-.169a1.4 1.4 0 0 1 1.256.057v.108h1.389v-.246a1.38 1.38 0 0 0 1.229.112v.134h1.389v-.132a1.41 1.41 0 0 1 1.247-.019v.151h1.389v-.305c.389.05.96-.6.976-1.034h.49v-1.391h-.222a1.46 1.46 0 0 1 .051-1.282h.171v-1.393h-.212a1.33 1.33 0 0 0-.023-1.243h.235V8.474H20a1.33 1.33 0 0 1-.707-.6v-.536H17.9v.27a1.23 1.23 0 0 0-1.282-.047v-.223h-1.385v.193a1.4 1.4 0 0 1-1.242.015v-.208H12.6v.219a1.29 1.29 0 0 0-1.257-.014v-.205H9.956v.151a1.41 1.41 0 0 1-1.228-.03v-.121H7.339v.194a1.33 1.33 0 0 0-1.248.023v-.217H4.7v.8h1.391v-.143a1.41 1.41 0 0 1 1.248-.009v.156h1.389v-.241a1.36 1.36 0 0 0 1.228.055v.19h1.389v-.159a1.4 1.4 0 0 1 1.255.014v.142h1.389v-.152a1.3 1.3 0 0 0 1.242-.014v.165h1.389v-.141a1.41 1.41 0 0 1 1.282.03v.108h1.055a1.34 1.34 0 0 0 1 .749v.971h.128a1.4 1.4 0 0 1 .009 1.243h-.137v1.389h.2a1.3 1.3 0 0 0-.069 1.282h-.134v1.168a1.45 1.45 0 0 1-.662.832v-.072H17.9v.2a1.34 1.34 0 0 0-1.247.039v-.239h-1.385v.2a1.43 1.43 0 0 1-1.229-.068v-.132H12.65v.286c-.189-.281-.861-.288-1.256-.1v-.186h-1.389v.171a1.41 1.41 0 0 1-1.243-.015v-.156H7.374v.234a1.28 1.28 0 0 0-1.283-.007v-.227H4.76a1.34 1.34 0 0 1-.715-.649v-1.075h-.2a1.35 1.35 0 0 0-.05-1.243h.247v-1.389H3.91a1.31 1.31 0 0 0-.034-1.282h.169V8.674h-.8v1.389h.2a1.42 1.42 0 0 1 .016 1.282h-.22v1.389h.12a1.41 1.41 0 0 1 .026 1.243h-.146v1.388h.5a1.32 1.32 0 0 0 .959.759m.732-8.165H5v-.438h.438Zm2.637 0h-.436v-.438h.439Zm2.617 0h-.438v-.438h.438Zm2.646 0H12.9v-.438h.439Zm2.631 0h-.438v-.438h.438Zm2.671 0H18.2v-.438h.438Zm1.5 1.248v-.355l.068-.084h.37v.439Zm0 2.631v-.437h.438v.439Zm0 2.232h.438v.439h-.438Zm-1.574 1.815H19v.438h-.44Zm-2.636 0h.438v.438h-.438Zm-2.618 0h.439v.438h-.439Zm-2.645 0h.439v.438h-.438Zm-2.632 0h.439v.438h-.439Zm-2.671 0H5.8v.438h-.442ZM3.424 9.769V9.33h.438v.439Zm0 2.671v-.439h.438v.439Zm0 2.192h.438v.439h-.438ZM2 6.15v11.7h20V6.15Zm19.543 11.245H2.457V6.607h19.086Z"/></svg>

<?xml version="1.0" encoding="UTF-8"?>
<svg width="24px" fill="#44739e" height="24px" viewBox="0 0 24 24" version="1.1" xmlns="http://www.w3.org/2000/svg" xmlns:xlink="http://www.w3.org/1999/xlink">
            <path d="m 4.7,16.123 v 0.382 h 1.391 v -0.137 a 1.415,1.415 0 0 1 1.283,0.007 v 0.13 H 8.762 V 16.3 a 1.34,1.34 0 0 0 1.243,0.033 v 0.176 h 1.389 V 16.34 a 1.4,1.4 0 0 1 1.256,0.057 v 0.108 h 1.389 v -0.246 a 1.382,1.382 0 0 0 1.229,0.112 v 0.134 h 1.389 v -0.132 a 1.41,1.41 0 0 1 1.247,-0.019 v 0.151 h 1.389 V 16.2 c 0.389,0.05 0.96,-0.6 0.976,-1.034 h 0.49 v -1.391 h -0.222 a 1.463,1.463 0 0 1 0.051,-1.282 h 0.171 V 11.1 H 20.547 A 1.329,1.329 0 0 0 20.524,9.857 h 0.235 V 8.473 H 20 a 1.334,1.334 0 0 1 -0.707,-0.6 V 7.337 H 17.9 v 0.27 A 1.228,1.228 0 0 0 16.618,7.56 V 7.337 H 15.233 V 7.53 A 1.4,1.4 0 0 1 13.991,7.545 V 7.337 H 12.6 V 7.556 A 1.285,1.285 0 0 0 11.343,7.542 V 7.337 H 9.956 V 7.488 A 1.412,1.412 0 0 1 8.728,7.458 V 7.337 H 7.339 V 7.531 A 1.328,1.328 0 0 0 6.091,7.554 V 7.337 H 4.7 v 0.8 H 6.091 V 7.994 A 1.41,1.41 0 0 1 7.339,7.985 V 8.141 H 8.728 V 7.9 a 1.363,1.363 0 0 0 1.228,0.055 v 0.19 h 1.389 V 7.986 A 1.407,1.407 0 0 1 12.6,8 v 0.142 h 1.389 V 7.99 A 1.293,1.293 0 0 0 15.231,7.976 V 8.141 H 16.62 V 8 a 1.411,1.411 0 0 1 1.282,0.03 v 0.108 h 1.055 a 1.34,1.34 0 0 0 1,0.749 v 0.971 h 0.128 a 1.406,1.406 0 0 1 0.009,1.243 h -0.137 v 1.389 h 0.2 a 1.3,1.3 0 0 0 -0.069,1.282 h -0.134 v 1.168 a 1.454,1.454 0 0 1 -0.662,0.832 V 15.7 H 17.9 v 0.2 a 1.34,1.34 0 0 0 -1.247,0.039 V 15.7 h -1.385 v 0.2 A 1.434,1.434 0 0 1 14.039,15.832 V 15.7 H 12.65 v 0.286 c -0.189,-0.281 -0.861,-0.288 -1.256,-0.1 V 15.7 h -1.389 v 0.171 A 1.414,1.414 0 0 1 8.762,15.856 V 15.7 H 7.374 v 0.234 A 1.278,1.278 0 0 0 6.091,15.927 V 15.7 H 4.76 A 1.34,1.34 0 0 1 4.045,15.051 v -1.075 h -0.2 A 1.354,1.354 0 0 0 3.795,12.733 H 4.042 V 11.344 H 3.91 A 1.313,1.313 0 0 0 3.876,10.062 H 4.045 V 8.673 h -0.8 v 1.389 h 0.2 a 1.417,1.417 0 0 1 0.016,1.282 h -0.22 v 1.389 h 0.12 a 1.413,1.413 0 0 1 0.026,1.243 H 3.241 v 1.388 h 0.5 A 1.324,1.324 0 0 0 4.7,16.123 Z M 5.432,7.958 H 5 V 7.52 h 0.438 z m 2.637,0 H 7.633 V 7.52 h 0.439 z m 2.617,0 H 10.248 V 7.52 h 0.438 z m 2.646,0 H 12.9 V 7.52 h 0.439 z m 2.631,0 H 15.525 V 7.52 h 0.438 z m 2.671,0 H 18.2 V 7.52 h 0.438 z m 1.5,1.248 V 8.851 l 0.068,-0.084 h 0.37 v 0.439 z m 0,2.631 V 11.4 h 0.438 v 0.439 z m 0,2.232 h 0.438 v 0.439 H 20.134 Z M 18.56,15.884 H 19 v 0.438 h -0.44 z m -2.636,0 h 0.438 v 0.438 h -0.438 z m -2.618,0 h 0.439 v 0.438 h -0.439 z m -2.645,0 H 11.1 v 0.438 h -0.438 z m -2.632,0 h 0.439 v 0.438 H 8.029 Z m -2.671,0 H 5.8 v 0.438 H 5.358 Z M 3.424,9.768 V 9.329 h 0.438 v 0.439 z m 0,2.671 V 12 h 0.438 v 0.439 z m 0,2.192 H 3.862 V 15.07 H 3.424 Z M 2,6.149 v 11.7 H 22 V 6.149 Z M 21.543,17.394 H 2.457 V 6.606 h 19.086 z"/>

</svg>
